img/meta.svg

<svg xmlns="http://www.w3.org/2000/svg" width="24" height="24" fill="none" viewBox="0 0 24 24">
  <path fill="#0081FB" d="M2.562 14.676c0-3.929 1.965-8.028 4.27-8.028 1.282 0 2.307.768 3.93 3.074a1702.683 1702.683 0 0 1-2.477 3.844c-2.05 3.245-2.733 3.929-3.844 3.929-1.11.085-1.879-.94-1.879-2.819Zm13.41-1.452-1.452-2.391c-.342-.598-.77-1.196-1.11-1.708 1.28-1.965 2.305-2.99 3.586-2.99 2.563 0 4.613 3.844 4.613 8.627 0 1.793-.598 2.818-1.794 2.818-1.196 0-1.623-.769-3.844-4.356Zm-3.673-5.808C10.419 4.94 8.797 4 6.919 4 2.988 4 0 9.21 0 14.676c0 3.417 1.623 5.552 4.356 5.552 1.964 0 3.33-.94 5.893-5.381 0 0 1.025-1.879 1.794-3.16.256.427.512.854.768 1.366l1.196 2.05c2.306 3.929 3.587 5.21 5.893 5.21 2.648 0 4.1-2.22 4.1-5.722C23.915 8.783 20.84 4 17.167 4c-1.964 0-3.502 1.537-4.868 3.416Z"/>
</svg>

<svg width="24" height="24" viewBox="0 0 24 24" fill="none" xmlns="http://www.w3.org/2000/svg">
<path d="M2.562 14.676C2.562 10.747 4.527 6.648 6.832 6.648C8.114 6.648 9.139 7.416 10.762 9.722C9.93805 11.0044 9.11239 12.2858 8.285 13.566C6.235 16.811 5.552 17.495 4.441 17.495C3.331 17.58 2.562 16.555 2.562 14.676ZM15.972 13.224L14.52 10.833C14.178 10.235 13.75 9.637 13.41 9.125C14.69 7.16 15.715 6.135 16.996 6.135C19.559 6.135 21.609 9.979 21.609 14.762C21.609 16.555 21.011 17.58 19.815 17.58C18.619 17.58 18.192 16.811 15.971 13.224H15.972ZM12.299 7.416C10.419 4.94 8.797 4 6.919 4C2.988 4 0 9.21 0 14.676C0 18.093 1.623 20.228 4.356 20.228C6.32 20.228 7.686 19.288 10.249 14.847C10.249 14.847 11.274 12.968 12.043 11.687C12.299 12.114 12.555 12.541 12.811 13.053L14.007 15.103C16.313 19.032 17.594 20.313 19.9 20.313C22.548 20.313 24 18.093 24 14.591C23.915 8.783 20.84 4 17.167 4C15.203 4 13.665 5.537 12.299 7.416Z" fill="#0081FB"/>
</svg>
